X:198
T:Petticoat Loose
T:Rooms of Dooagh, The
R:jig
D:Mary McNamara: Traditional Music from East Clare
Z:id:hn-jig-198
M:6/8
K:Ador
GEE cEE|GAG G2A|GEE cBc|ded dcA|GEE cEE|GAG G2g|fed cAG|1 Add dcA:|2 Add def||
~g3 ged|cAB cde|~g3 ged|eaa age|gea ged|cAB cde|=fed cAG|1 Add def:|2 Add dcA||

